icon-themes/breeze_svg/svx/res/fr011.svg

<svg viewBox="0 0 24 24" xmlns="http://www.w3.org/2000/svg"><path d="m4 11v1h17v-1z" fill="#4d4d4d"/><path d="m4 3v1 15 1h8 1 8v-1-15-1zm1 1h7v15h-7zm8 0h7v15h-7z" fill="#f47750"/></svg>

<svg xmlns="http://www.w3.org/2000/svg" viewBox="0 0 24 24">
 <path 
     style="fill:#4d4d4d" 
     d="M 4 11 L 4 12 L 21 12 L 21 11 L 4 11 z "
     />
 <path 
     style="fill:#f47750" 
     d="M 4 3 L 4 4 L 4 19 L 4 20 L 12 20 L 13 20 L 21 20 L 21 19 L 21 4 L 21 3 L 4 3 z M 5 4 L 12 4 L 12 19 L 5 19 L 5 4 z M 13 4 L 20 4 L 20 19 L 13 19 L 13 4 z "
     />
 </svg>
